justvector/paypal.svg

<?xml version="1.0" encoding="iso-8859-1"?>
<!-- Generator: Adobe Illustrator 15.0.0, SVG Export Plug-In . SVG Version: 6.00 Build 0)  -->
<!DOCTYPE svg PUBLIC "-//W3C//DTD SVG 1.1//EN" "http://www.w3.org/Graphics/SVG/1.1/DTD/svg11.dtd">
<svg version="1.1" id="Icons" xmlns="http://www.w3.org/2000/svg" xmlns:xlink="http://www.w3.org/1999/xlink" x="0px" y="0px"
	 width="100px" height="100px" viewBox="0 0 100 100" style="enable-background:new 0 0 100 100;" xml:space="preserve">
<path id="PayPal" d="M63.056,5H23.648L6.188,85.146h23.124l5.664-26.557h16.52c15.803,0,29.019-9.744,32.563-26.312
	C88.063,13.521,74.611,5,63.056,5z M45.815,43.242h-7.536l4.953-21.924h11.326c3.885,0,6.827,2.314,7.794,5.712
	c-0.496-0.086-0.956-0.235-1.498-0.235H49.529L45.815,43.242z M62.346,32.278c-1.378,5.95-7.033,10.698-12.79,10.921l2.711-12.023
	h10.266C62.472,31.543,62.447,31.897,62.346,32.278z M90.354,37.754c1.326-6.211,0.711-11.275-1.086-15.306
	c3.748,4.47,5.688,10.955,3.825,19.687C89.55,58.701,76.331,68.445,60.531,68.445h-16.52L38.348,95H15.222l0.96-4.381h19.428
	l5.663-26.555h16.521C73.596,64.064,86.812,54.321,90.354,37.754z"/>
</svg>

<?xml version="1.0" encoding="UTF-8" standalone="no"?>
<!DOCTYPE svg PUBLIC "-//W3C//DTD SVG 1.1//EN" "http://www.w3.org/Graphics/SVG/1.1/DTD/svg11.dtd">
<svg width="100%" height="100%" viewBox="0 0 100 100" version="1.1" xmlns="http://www.w3.org/2000/svg" xmlns:xlink="http://www.w3.org/1999/xlink" xml:space="preserve" xmlns:serif="http://www.serif.com/" style="fill-rule:evenodd;clip-rule:evenodd;stroke-linejoin:round;stroke-miterlimit:2;">
    <path id="PayPal" d="M63.056,5L23.648,5L6.188,85.146L29.312,85.146L34.976,58.589L51.496,58.589C67.299,58.589 80.515,48.845 84.059,32.277C88.063,13.521 74.611,5 63.056,5ZM45.815,43.242L38.279,43.242L43.232,21.318L54.558,21.318C58.443,21.318 62.711,21.548 62.387,27.587C61.569,42.788 45.815,43.242 45.815,43.242ZM90.354,37.754C91.68,31.543 91.065,26.479 89.268,22.448C93.016,26.918 94.956,33.403 93.093,42.135C89.55,58.701 76.331,68.445 60.531,68.445L44.011,68.445L38.348,95L15.222,95L16.182,90.619L35.61,90.619L41.273,64.064L57.794,64.064C73.596,64.064 86.812,54.321 90.354,37.754Z" style="fill-rule:nonzero;"/>
</svg>
